src/images_karasa_jaga_svg/svx/res/slidezoomin_10.svg

<svg height="10" viewBox="0 0 2.6458333 2.6458334" width="10" xmlns="http://www.w3.org/2000/svg" xmlns:xlink="http://www.w3.org/1999/xlink"><radialGradient id="a" cx="16.831486" cy="9.60026" gradientUnits="userSpaceOnUse" r="12.832871"><stop offset="0" stop-color="#fdfdfd"/><stop offset="1" stop-color="#e1e1e1"/></radialGradient><linearGradient id="b" gradientUnits="userSpaceOnUse" x1="16.654737" x2="17.211926" y1="33.18632" y2=".39686"><stop offset="0" stop-color="#464646"/><stop offset="1" stop-color="#6d6d6d"/></linearGradient><g transform="scale(.078125)"><circle cx="16.933332" cy="16.933331" fill="url(#b)" r="16.437077"/><circle cx="16.933332" cy="16.933331" fill="url(#a)" r="12.832871"/><path d="m51.199219 25.599609v25.59961h-25.59961v25.601562h25.59961v25.599609h25.601562v-25.599609h25.599609v-25.601562h-25.599609v-25.59961z" fill="#464646" transform="scale(.26458334)"/></g></svg>

<?xml version="1.0" encoding="UTF-8" standalone="no"?>
<svg
   xmlns:dc="http://purl.org/dc/elements/1.1/"
   xmlns:cc="http://creativecommons.org/ns#"
   xmlns:rdf="http://www.w3.org/1999/02/22-rdf-syntax-ns#"
   xmlns:svg="http://www.w3.org/2000/svg"
   xmlns="http://www.w3.org/2000/svg"
   xmlns:sodipodi="http://sodipodi.sourceforge.net/DTD/sodipodi-0.dtd"
   xmlns:inkscape="http://www.inkscape.org/namespaces/inkscape"
   height="128"
   viewBox="0 0 33.866666 33.866668"
   width="128"
   version="1.1"
   id="svg24"
   sodipodi:docname="slidezoomin_10.svg"
   inkscape:version="0.92.3 (unknown)"
   inkscape:export-filename="/home/rizmut/Dokumen/Rizmut/Github/libreoffice-style-karasa-jaga/build/images_karasa_jaga/svx/res/slidezoomin_10.png"
   inkscape:export-xdpi="7.5"
   inkscape:export-ydpi="7.5">
  <metadata
     id="metadata30">
    <rdf:RDF>
      <cc:Work
         rdf:about="">
        <dc:format>image/svg+xml</dc:format>
        <dc:type
           rdf:resource="http://purl.org/dc/dcmitype/StillImage" />
        <dc:title></dc:title>
      </cc:Work>
    </rdf:RDF>
  </metadata>
  <defs
     id="defs28" />
  <sodipodi:namedview
     pagecolor="#ffffff"
     bordercolor="#666666"
     borderopacity="1"
     objecttolerance="10"
     gridtolerance="10"
     guidetolerance="10"
     inkscape:pageopacity="0"
     inkscape:pageshadow="2"
     inkscape:window-width="1366"
     inkscape:window-height="706"
     id="namedview26"
     showgrid="true"
     inkscape:snap-smooth-nodes="true"
     inkscape:zoom="2.6074563"
     inkscape:cx="44.03969"
     inkscape:cy="77.043872"
     inkscape:window-x="0"
     inkscape:window-y="0"
     inkscape:window-maximized="1"
     inkscape:current-layer="svg24">
    <inkscape:grid
       type="xygrid"
       id="grid840"
       spacingx="3.3866667"
       spacingy="3.3866667"
       empspacing="1" />
  </sodipodi:namedview>
  <radialGradient
     id="a"
     cx="16.8314849542"
     cy="272.73358648108"
     gradientUnits="userSpaceOnUse"
     r="12.83287113643"
     gradientTransform="translate(0,-263.13332)">
    <stop
       offset="0"
       stop-color="#fdfdfd"
       id="stop2" />
    <stop
       offset="1"
       stop-color="#e1e1e1"
       id="stop4" />
  </radialGradient>
  <linearGradient
     id="b"
     gradientUnits="userSpaceOnUse"
     x1="16.654737"
     x2="17.211926"
     y1="296.31964"
     y2="263.53018"
     gradientTransform="translate(0,-263.13332)">
    <stop
       offset="0"
       stop-color="#464646"
       id="stop7" />
    <stop
       offset="1"
       stop-color="#6d6d6d"
       id="stop9" />
  </linearGradient>
  <circle
     style="fill:url(#b)"
     id="circle12"
     r="16.437077"
     cy="16.933331"
     cx="16.933332" />
  <circle
     style="fill:url(#a)"
     id="circle14"
     r="12.832871"
     cy="16.933331"
     cx="16.933332" />
  <path
     style="opacity:1;fill:#464646;fill-opacity:1;stroke:none;stroke-width:8;stroke-linecap:round;stroke-linejoin:round;stroke-miterlimit:4;stroke-dasharray:none;stroke-dashoffset:0;stroke-opacity:1"
     d="M 51.199219 25.599609 L 51.199219 51.199219 L 25.599609 51.199219 L 25.599609 76.800781 L 51.199219 76.800781 L 51.199219 102.40039 L 76.800781 102.40039 L 76.800781 76.800781 L 102.40039 76.800781 L 102.40039 51.199219 L 76.800781 51.199219 L 76.800781 25.599609 L 51.199219 25.599609 z "
     transform="scale(0.26458334)"
     id="rect847" />
  <g
     style="fill:#464646"
     id="g20"
     transform="translate(0,-263.13332)" />
</svg>
